src/assets/skills/postman.svg

<svg height="100pt" viewBox="0 0 100 100" width="100pt" xmlns="http://www.w3.org/2000/svg"><path d="m0 0h100v100h-100z" fill="#ff6c37"/><path d="m66.661 31.599c-.965.013-1.837.41-2.472 1.041l-18.554 18.554-3.959-3.96c18.288-18.235 21.585-18.41 24.985-15.638zm-20.263 20.254 18.501-18.501c.472-.493 1.134-.8 1.868-.8 1.429 0 2.585 1.157 2.585 2.585 0 .794-.356 1.503-.919 1.978l-.003.003-19.579 17.188zm1.375 2.894-4.585.991c-.015.003-.034.006-.056.006-.097 0-.181-.056-.225-.138-.022-.037-.034-.078-.034-.125 0-.068.028-.134.075-.178l2.687-2.687zm-11.682-1.913 4.885-4.884 3.662 3.659-8.247 1.776c-.022.006-.05.009-.078.009-.122 0-.225-.069-.275-.172v-.003c-.031-.047-.047-.103-.047-.163 0-.09.041-.168.1-.225zm-15.191 25.242c-.162-.016-.287-.15-.287-.316 0-.009 0-.021 0-.031.009-.075.04-.14.09-.19h.01l3.94-3.941 5.091 5.091zm10.104-5.234c-.307.162-.513.478-.513.843 0 .078.009.157.028.228v-.006l.847 3.603c.009.038.016.082.016.125 0 .288-.235.522-.522.522-.147 0-.278-.059-.372-.156h-.013l-5.115-5.122 15.675-15.66 7.585-1.638 3.641 3.641c-5.229 4.591-12.379 9.172-21.251 13.616zm21.997-14.282h-.009l-3.497-3.497 19.579-17.188c.181-.163.344-.335.49-.522l.007-.01c-.616 5.604-8.454 13.523-16.573 21.214zm15.238-26.92-.012-.009c-1.366-1.372-2.21-3.266-2.21-5.357 0-4.194 3.401-7.591 7.591-7.591 1.857 0 3.557.666 4.879 1.772l-.013-.009-6.709 6.722c-.091.091-.147.216-.147.353 0 .138.056.263.147.353l5.197 5.197c-.982.497-2.141.791-3.366.791-2.091 0-3.985-.847-5.353-2.219zm10.741 0c-.334.331-.706.631-1.103.891l-.028.015h-.003l-5.028-5.028 6.387-6.388c2.754 3 2.654 7.635-.225 10.51zm-.415-6.432c-.15.11-.247.285-.247.482 0 .062.009.122.025.175v-.003c.112.225.178.487.178.768 0 .422-.15.81-.403 1.11l.003-.003c-.078.1-.125.225-.125.362 0 .185.088.35.222.456.097.075.216.122.35.125.178-.003.334-.081.441-.206.415-.497.665-1.14.665-1.841 0-.468-.112-.912-.312-1.303l.006.016c-.106-.15-.278-.247-.472-.247-.125 0-.244.041-.337.109h.003z" fill="#fff"/></svg>

<?xml version="1.0" encoding="UTF-8" standalone="no"?><!-- Generator: Gravit.io --><svg xmlns="http://www.w3.org/2000/svg" xmlns:xlink="http://www.w3.org/1999/xlink" style="isolation:isolate" viewBox="0 0 100 100" width="100pt" height="100pt"><path d=" M 0 0 L 100 0 L 100 100 L 0 100 L 0 0 Z " fill="rgb(255,108,55)"/><path d=" M 66.661 31.599 C 65.696 31.612 64.824 32.009 64.189 32.64 L 64.189 32.64 L 45.635 51.194 L 41.676 47.234 C 59.964 28.999 63.261 28.824 66.661 31.596 L 66.661 31.599 Z  M 46.398 51.853 L 64.899 33.352 C 65.371 32.859 66.033 32.552 66.767 32.552 C 68.196 32.552 69.352 33.709 69.352 35.137 C 69.352 35.931 68.996 36.64 68.433 37.115 L 68.43 37.118 L 48.851 54.306 L 46.398 51.853 Z  M 47.773 54.747 L 43.188 55.738 C 43.173 55.741 43.154 55.744 43.132 55.744 C 43.035 55.744 42.951 55.688 42.907 55.606 L 42.907 55.606 C 42.885 55.569 42.873 55.528 42.873 55.481 C 42.873 55.413 42.901 55.347 42.948 55.303 L 42.948 55.303 L 45.635 52.616 L 47.773 54.747 Z  M 36.091 52.834 L 40.976 47.95 L 44.638 51.609 L 36.391 53.385 C 36.369 53.391 36.341 53.394 36.313 53.394 C 36.191 53.394 36.088 53.325 36.038 53.222 L 36.038 53.219 C 36.007 53.172 35.991 53.116 35.991 53.056 C 35.991 52.966 36.032 52.888 36.091 52.831 L 36.091 52.831 L 36.091 52.834 Z  M 20.9 78.076 C 20.738 78.06 20.613 77.926 20.613 77.76 C 20.613 77.751 20.613 77.739 20.613 77.729 L 20.613 77.729 C 20.622 77.654 20.653 77.589 20.703 77.539 L 20.703 77.539 L 20.713 77.539 L 24.653 73.598 L 29.744 78.689 L 20.9 78.076 Z  M 31.004 72.842 C 30.697 73.004 30.491 73.32 30.491 73.685 C 30.491 73.763 30.5 73.842 30.519 73.913 L 30.519 73.907 L 31.366 77.51 C 31.375 77.548 31.382 77.592 31.382 77.635 C 31.382 77.923 31.147 78.157 30.86 78.157 C 30.713 78.157 30.582 78.098 30.488 78.001 L 30.488 78.001 L 30.475 78.001 L 25.36 72.879 L 41.035 57.219 L 48.62 55.581 L 52.261 59.222 C 47.032 63.813 39.882 68.394 31.01 72.838 L 31.004 72.842 Z  M 53.001 58.56 L 52.992 58.56 L 49.495 55.063 L 69.074 37.875 C 69.255 37.712 69.418 37.54 69.564 37.353 L 69.571 37.343 C 68.955 42.947 61.117 50.866 52.998 58.557 L 53.001 58.56 Z  M 68.239 31.64 L 68.227 31.631 C 66.861 30.259 66.017 28.365 66.017 26.274 C 66.017 22.08 69.418 18.683 73.608 18.683 C 75.465 18.683 77.165 19.349 78.487 20.455 L 78.474 20.446 L 71.765 27.168 C 71.674 27.259 71.618 27.384 71.618 27.521 C 71.618 27.659 71.674 27.784 71.765 27.874 L 71.765 27.874 L 76.962 33.071 C 75.98 33.568 74.821 33.862 73.596 33.862 C 71.505 33.862 69.611 33.015 68.243 31.643 L 68.243 31.643 L 68.239 31.64 Z  M 78.98 31.64 C 78.646 31.971 78.274 32.271 77.877 32.531 L 77.849 32.546 L 77.846 32.546 L 72.818 27.518 L 79.205 21.13 C 81.959 24.13 81.859 28.765 78.98 31.64 Z  M 78.565 25.208 C 78.415 25.318 78.318 25.493 78.318 25.69 C 78.318 25.752 78.327 25.812 78.343 25.865 L 78.343 25.862 C 78.455 26.087 78.521 26.349 78.521 26.63 C 78.521 27.052 78.371 27.44 78.118 27.74 L 78.121 27.737 C 78.043 27.837 77.996 27.962 77.996 28.099 C 77.996 28.284 78.084 28.449 78.218 28.555 L 78.218 28.555 C 78.315 28.63 78.434 28.677 78.568 28.68 L 78.568 28.68 C 78.746 28.677 78.902 28.599 79.009 28.474 L 79.009 28.474 C 79.424 27.977 79.674 27.334 79.674 26.633 C 79.674 26.165 79.562 25.721 79.362 25.33 L 79.368 25.346 C 79.262 25.196 79.09 25.099 78.896 25.099 C 78.771 25.099 78.652 25.14 78.559 25.208 L 78.562 25.208 L 78.565 25.208 Z " fill="rgb(255,255,255)"/></svg>
